X:314
T: Die Erscheinung auf dem Kirchhof (57),
N: T0203
O: Luxemburg
S: Singendes Volk, Esch-Alzette 1937 posth.]
R: Liebeslieder]
M: 4/4
L: 1/16
K: C
G2A2 | G6F2E2G2c2E2 | E4D4z4
B2c2 | d6c2B2A2G2F2 | F4E4z4
G2A2 | G4E4z4c2d2 | c4G3GG2G2A2B2 | c4z4
c4B2A2 | G4E2G2G2G2F2F2 | E8z4

